X:50
T:a March
O:england
R:March
M:C|
A:Westmorland
N:P6 2/2
K:G
BA|G2BG A2dc|Bgfe d2cB|c2ec B2gB|A2AA A2BA|\
G2BG A2dc|Bgfe d2Bd|e2ce f2de/2f/2|g2GG G2::\
Bc|d2dB d2gd|e2ec e2ge|\
d2dc B2GA/2B/2|A2AAA2BA|\
G2BGA2dc|Bgfe d2Bd|e2 ce f2 de/2f/2|g2GGG2:|


